src/topics/icons/flat-ui.svg

<svg height="194" preserveAspectRatio="xMidYMid" viewBox="0 0 256 194" width="256" xmlns="http://www.w3.org/2000/svg" xmlns:xlink="http://www.w3.org/1999/xlink"><clipPath id="a"><path d="m68.3667503 0c-3.626 0-7.103 1.443-9.664 4.011l-56.61600003 56.772c-2.783 2.793-2.783 7.312.004 10.102l120.66799973 120.836c2.79 2.794 7.317 2.797 10.112.007l121.032-120.864c2.784-2.781 2.798-7.289.031-10.087l-56.099-56.725c-2.563-2.593-6.057-4.052-9.703-4.052z"/></clipPath><g clip-path="url(#a)"><g transform="translate(-2.95 -.86)"><path d="m68.3506.8562h125.717c1.736 0 3.399.695 4.62 1.929l63.201 63.907-131.126 130.944-130.763-130.944 63.75-63.927c1.219-1.222 2.875-1.909 4.601-1.909" fill="#57bbfb"/><path d="m197.5985 1.9047c-1.044-.677-2.267-1.049-3.531-1.049h-125.717c-1.726 0-3.382.687-4.601 1.91l2.086 2.637 31.918 31.372 66.291-.273z" fill="#48acec"/><path d="m131.3549 197.0446-.592.592-130.763-130.945 1.104-1.106h69.097l61.154 127.777z" fill="#2b8fcf"/><path d="m87.4283 109.9353 10.873 22.05h65.567l10.776-21.548-44.206-43.935z" fill="#2d91d1"/><path d="m196.798 66.5022h64.931l-65.404-65.601-32.826 32.684 33.299 32.916z" fill="#7acbff"/><path d="m163.4987 33.5856-32.645-32.269-32.742 32.826 32.327 32.36z" fill="#55b9f9"/><path d="m130.4382 66.5022h-64.602l21.592 43.439 43.01-43.434 44.207 43.936 22.153-43.941z" fill="#3b9fdf"/><path d="m65.8359 66.5016v.001h64.602l-32.326-32.36z" fill="#52b6f7"/><path d="m163.4987 33.5856-33.06 32.917h66.359l.001-.001z" fill="#8fd3ff"/><path d="m163.4987 33.5856-32.645-32.269z" fill="#ff2690"/><path d="m98.1116 34.1426-32.526-32.559-65.54 64.919h65.791l-.001-.001z" fill="#41a5e5"/><path d="m130.8533 198 33.015-66.015h-65.567z" fill="#3ca0e0"/><path d="m174.6448 110.4378-10.776 21.548h32.457z" fill="#4eb2f2"/><path d="m65.5931 131.9854h32.708l-10.873-22.05z" fill="#1a7ebe"/><path d="m180.4086 65.9839c5.336-1.131 15.081-10.956 15.932-15.768.044-.248.445-.245.517-.005 1.464 4.915 11.434 14.847 15.844 15.773.258.054.288.902.031.96-4.557 1.032-14.489 11.062-15.861 15.85-.075.261-.494.263-.557-.001-1.089-4.555-10.807-14.497-15.937-15.849-.257-.068-.229-.905.031-.96" fill="#fff"/></g></g></svg>

<?xml version="1.0" encoding="UTF-8" standalone="no"?>
<svg width="256px" height="194px" viewBox="0 0 256 194" version="1.1" xmlns="http://www.w3.org/2000/svg" xmlns:xlink="http://www.w3.org/1999/xlink" preserveAspectRatio="xMidYMid">
    <defs>
		<clipPath id="clip-1">
			<path d="M68.3667503,0 C64.7407503,0 61.2637503,1.443 58.7027503,4.011 L2.08675027,60.783 C-0.696249731,63.576 -0.696249731,68.095 2.09075027,70.885 L122.75875,191.721 C125.54875,194.515 130.07575,194.518 132.87075,191.728 L253.90275,70.864 C256.68675,68.083 256.70075,63.575 253.93375,60.777 L197.83475,4.052 C195.27175,1.459 191.77775,0 188.13175,0 L68.3667503,0 Z"></path>
		</clipPath>
    </defs>
	<g clip-path="url(#clip-1)">
		<g transform="translate(-2.95, -0.86)">
			<path d="M68.3506,0.8562 L194.0676,0.8562 C195.8036,0.8562 197.4666,1.5512 198.6876,2.7852 L261.8886,66.6922 L130.7626,197.6362 L-0.0004,66.6922 L63.7496,2.7652 C64.9686,1.5432 66.6246,0.8562 68.3506,0.8562" fill="#57BBFB"></path>
			<path d="M197.5985,1.9047 C196.5545,1.2277 195.3315,0.8557 194.0675,0.8557 L68.3505,0.8557 C66.6245,0.8557 64.9685,1.5427 63.7495,2.7657 L65.8355,5.4027 L97.7535,36.7747 L164.0445,36.5017 L197.5985,1.9047 Z" fill="#48ACEC"></path>
			<path d="M131.3549,197.0446 L130.7629,197.6366 L-0.0001,66.6916 L1.1039,65.5856 L70.2009,65.5856 L131.3549,193.3626 L131.3549,197.0446 Z" fill="#2B8FCF"></path>
			<path d="M87.4283,109.9353 L98.3013,131.9853 L163.8683,131.9853 L174.6443,110.4373 L130.4383,66.5023 L87.4283,109.9353 Z" fill="#2D91D1"></path>
			<path d="M196.798,66.5022 L261.729,66.5022 L196.325,0.9012 L163.499,33.5852 L196.798,66.5012 L196.798,66.5022 Z" fill="#7ACBFF"></path>
			<path d="M163.4987,33.5856 L130.8537,1.3166 L98.1117,34.1426 L130.4387,66.5026 L163.4987,33.5856 Z" fill="#55B9F9"></path>
			<path d="M130.4382,66.5022 L65.8362,66.5022 L87.4282,109.9412 L130.4382,66.5072 L174.6452,110.4432 L196.7982,66.5022 L130.4382,66.5022 Z" fill="#3B9FDF"></path>
			<path d="M65.8359,66.5016 L65.8359,66.5026 L130.4379,66.5026 L98.1119,34.1426 L65.8359,66.5016 Z" fill="#52B6F7"></path>
			<path d="M163.4987,33.5856 L130.4387,66.5026 L196.7977,66.5026 L196.7987,66.5016 L163.4987,33.5856 Z" fill="#8FD3FF"></path>
			<path d="M163.4987,33.5856 L130.8537,1.3166 L163.4987,33.5856 Z" fill="#FF2690"></path>
			<path d="M98.1116,34.1426 L65.5856,1.5836 L0.0456,66.5026 L65.8366,66.5026 L65.8356,66.5016 L98.1116,34.1426 Z" fill="#41A5E5"></path>
			<path d="M130.8533,198 L163.8683,131.985 L98.3013,131.985 L130.8533,198 Z" fill="#3CA0E0"></path>
			<path d="M174.6448,110.4378 L163.8688,131.9858 L196.3258,131.9858 L174.6448,110.4378 Z" fill="#4EB2F2"></path>
			<path d="M65.5931,131.9854 L98.3011,131.9854 L87.4281,109.9354 L65.5931,131.9854 Z" fill="#1A7EBE"></path>
			<path d="M180.4086,65.9839 C185.7446,64.8529 195.4896,55.0279 196.3406,50.2159 C196.3846,49.9679 196.7856,49.9709 196.8576,50.2109 C198.3216,55.1259 208.2916,65.0579 212.7016,65.9839 C212.9596,66.0379 212.9896,66.8859 212.7326,66.9439 C208.1756,67.9759 198.2436,78.0059 196.8716,82.7939 C196.7966,83.0549 196.3776,83.0569 196.3146,82.7929 C195.2256,78.2379 185.5076,68.2959 180.3776,66.9439 C180.1206,66.8759 180.1486,66.0389 180.4086,65.9839" fill="#FFFFFF"></path>
		</g>
	</g>
</svg>
